X:278
T: IN MEINES VATERS GARTEN
N: E1422
O: Europa, Mitteleuropa, Deutschland, Hessen, Nassau, Dill - Kreis
R: Staende -, Soldaten - Lied, Liebe
M: 4/4
L: 1/8
K: C
C,2 | C,2E,2G,2C2 | G,4E,2
G,2 | G,2F,2F,2A,2 | A,2G,2G,2
A,2 | C,2E,2G,2C2 | A,4F2
F2 | G2G2B,2B,2 | C4z2
G,G, | A,2C2A,2C2 | G,2G,2E,2
G,G, | G,2F,2F,2A,A, | A,2G,2G,2
A,2 | C,2E,2G,2C2 | A,4F2
F2 | G2G2B,2B,2 | C4z2

